X:1
T:Le feu couvert
T:Le feu couvert
T:Cornelius Verdonck
T:Source : Le Rossignol musical---Anvers---P.Phalèse---1598. Editor : André Vierendeels (04/06/14).
C:Cornelius Verdonck
%%score [ 1 2 3 4 ]
L:1/8
Q:1/4=84
M:4/4
K:C
V:1 treble nm="Superius" snm="S"
V:2 treble nm="Altus" snm="A"
V:3 treble-8 nm="Tenor 1" snm="T1"
V:4 treble-8 nm="Tenor 2" snm="T 2"
V:1
 B4 d4 | e2 A4 d2- | d2 B2 c2 Bc | d2 e2 c3 c | B4 A2 B2 | c2 d2 A4 | z8 | z2 B2 d2 A2 | %8
w: Le feu|cou- vert dont|_ l'ar- deur et la|for- ce se de-|cou- vre par|mon tour- ment||croist en vi-|
 e2 d2 f2 e2 |"^-natural" A2 Bc d2 c2 | B4 e2 A2- | A2 B2 c4 | B2 G2 A3 A | D4 z4 | z4 A4 | %15
w: gueur sou- dain que|je _ _ _ m'ef-|for- ce de|_ trou- ver|quel- qu'al- lè- ge-|ment,|et|
 A6 _B2 | A2 e2 c2 A2 | e4 e4 | z2 e2 d2 c2 | B2 A2 B2 A2 | z2 f2 e2 d2 | e4 e4 | z8 | A6 A2 | %24
w: d'au- tant|plus que je re-|gar- de,|que je re-|gar- * * de,|que je re-|gar- de||de me-|
 _B4 A2 d2 | c2 A2 e4- | e4 e4 |"^-natural" z2 E2 F4- | F2 G2 A2 B2 | c2 d2 e4- | e4 e4 | A8- | %32
w: met- tr'en la|sau- ve- gar-|* de|de cel-|* l'à qui je|dois a- voir|_ se-|cours,|
 A8 | z8 | A4 E2 F2 | G4 D2 D2 | F4 F4 | G8 | A4 E2 ^F2 | G4 G4 | A8 | B2 Bc dB e2- | e2 d2 c4- | %43
w: _||plus je me|trou- v'es- loig-|ner de|se-|cours, es- loig-|ner de|se-|cours, de _ _ _ _|_ se- cours.|
 c4 B2 A2 | B8 |] %45
w: _ _ _||
V:2
 z2 D4 G2- | G2 FE F2 G2 | D4 E2 G2 | F2 E4 G2 | G,A,B,C D2 D2 | z2 D4 D2 | DCDE F2 E2 | D2 E4 DC | %8
w: Le feu|_ _ _ _ cou-|vert dont l'ar-|deur et la|for- * * * * ce|se de-|cou- * * * * vre|par mon _ _|
 B,C D4 ^C2 | D4 z2 E2 | ^F2 G2 A3 A, |"^-natural" C2 D3 C A,2 | B,4 A,2 C2- | C2 B,2 A,4 | %14
w: _ _ _ tour-|ment croist|en vi- gueur sou-|dain que je m'ef-|for- ce de|_ trou- ver|
 D2 D2 E3 E | ^F4 z4 | z2 A4 A2 | c4 B2 B2 | A2 ^G2 A3 =G | F4 D4 | D2 A2 c2 BA | ^G3 A B2 c2 | %22
w: quel- qu'al- lè- ge-|ment,|et d'au-|tant plus que|je re- gar- *|* de,|et d'au- tant _ _|_ _ _ _|
 A2 E2 F2 E2 | ^F2 G4 =FE | D2 _B,2 z2 A2- | A2 A2 c4 | B2 B2 A2 ^G2 | A4 A2 A2 | A2 G2 F3 G | %29
w: plus que je re-|gar- * * *|* de de|_ me met-|tr'en la sau- ve-|gar- de de|cel- le'à qui _|
 A2 B2 c4 | G4 A4- | A2 G2 F4- | F4 F4 | E8- | E4 z4 |"^-natural" z2 B,2 B,2 ^C2 | D4 A,2 A2 | %37
w: _ je dois|a- voir|_ _ _|* se-|cours,|_|plus je me|trou- v'es- loig-|
 D4 z2 DE | F2 E2 A4 | z4 D2 E2 | ^F8 | G4 G4- |"^-natural""^-natural" G2 ^FE F4 | G8- | G8 |] %45
w: ner de _|_ se- cours,|es- loig-|ner|de se-||cours.|_|
V:3
 G4 B4 | c2 d4 B2- | Bc d2 G2 G2 | AB cd e2 e2 | z2 d3 c BA | G2 A3 G A2 | B4 c2 B2 | A2 G4 ^F2 | %8
w: Le feu|cou- vert dont|_ l'ar- deur et la|for- * * * * ce|se de- cou- *||* vre par|mon tour- *|
 G4 z2 e2 | f2 d2 a2 a2- | a2 g4 f2 | e3 f g2 a2 | d3 e f2 e2 | z4 d2 c2 | B2 d2 ^c d2 c | d4 d4- | %16
w: ment croist|en vi- gueur sou-|* dain que|je _ _ m'ef-|for- * * ce|de trou-|ver quel- qu'al- lè- ge-|ment, et|
 d2 e2 f4 | e6 e2 | c2 B2 A4 | A2 A2 G2 ^F2 | G2 A2 z2 A2 | B2 c2 B2 A2 | A6 ^c2 | d4 d2 d2 | %24
w: _ 'au- tant|plus que|je re- gar-|de, que je re-|gar- de, que|je re gar- de|de me|met- tr'en la|
 _B2 G2 d3 e | f4 e4 | e3 d c2 B2 | d2 ^c2 d4 | d6 d2 | A2 G2 g3 f | e2 d2 c4- | c4 d4 | A4 d4 | %33
w: sau- ve- gar- *|* de,|en _ _ la|sau- ve- gar-|de de|cel- le'à qui _|_ je dois|_ a-|voir se-|
 ^c8 | z2 ^c2 c2 d2 | e2 E2 G4 | D8 | G4 c2 B2 | A4 A2 A2 | E2 ^F2 G4 | D8 | d4 G4 | c6 d2 | %43
w: cours,|plus je me|trou- v'es- loig-|ner,|plus je me|trou- ve,- plus|je me trou-|v'es-|loig- ner|de _|
 _e4 d4 | d8 |] %45
w: _ se-|cours|
V:4
 z8 | z8 | G4 E4 | D2 A4 E2- | E2 G2 ^F2 G=F | E2 D2 ^F3 F | G4 A2 G2 | F2 E2 A4 | z8 | %9
w: ||Le feu|cou- vert dont|_ l'ar- deur et la|for- ce se de-|cou- vre par|mon tour- ment||
 z2 G2 ^F2 A2 | D2 E2 ^C2 D2 | A2 GF E2 ^F2 | G4 D2 A2- | A2 G2 ^F4 | G2 B2 A3 A | d4 z4 | z4 A4- | %17
w: croist en vi-|gueur sou- dain que|je _ _ _ m'ef-|for- ce de|_ trou- ver|quel- qu'al- lè- ge-|ment,|et-|
 A2 A2 ^G4 | A2 E2 ^F2 A2 | D4 D4 | z2 D2 E2 F2 | E3 ^F ^G2 A2 | z2 ^C2 D2 E2 | D4 D4 | z8 | %25
w: _ d'au- tant|plus que je re-|gar- de,|que je re-|gar- * * de,|que je re-|gar- de||
 A6 A2 | ^G4 A2 E2 | ^F2 A2 D4- | D4 D4 | z2 d2 c4- | c2 B2 A2 G2 | F2 E2 D4- | D4 D4 | A8- | A8 | %35
w: de me|met- tr'en la-|sau- ve- gar-|* de|de cel-|* le'à qui je|dois a- voir|_ se-|cours,|_|
 z8 | A4 d2 c2 | B4 e2 d2 | c4 c4 | B8 | A4 d2 c2 | B4 B4 | A8 | G8- | G8 |] %45
w: |plus je me|trou- v'es- loig-|ner de|se-|cours, es- loig-|ner de|se-|cours.|_|

